docs/.gitbook/assets/icon-sunrise-16@light.svg

<svg width="32" height="32" viewBox="0 0 16 16" fill="none" xmlns="http://www.w3.org/2000/svg">
<rect x="0" y="0" width="16" height="16" fill="#fff"/>
<path fill-rule="evenodd" clip-rule="evenodd" d="M8.00002 1C8.41424 1.00001 8.75001 1.33581 8.75 1.75002L8.74993 4.07034C9.29676 4.17418 9.80434 4.38935 10.2478 4.69106L11.8886 3.05024C12.1815 2.75734 12.6564 2.75734 12.9493 3.05024C13.2422 3.34313 13.2422 3.818 12.9493 4.1109L11.3085 5.75164C11.6559 6.26209 11.8887 6.85754 11.9689 7.50003L14.25 7.5C14.6642 7.5 15 7.83578 15 8.24999C15 8.6642 14.6642 9 14.25 9L11.2499 9.00004C11.051 9.00004 10.8602 8.92102 10.7196 8.78037C10.5789 8.63972 10.4999 8.44895 10.4999 8.25004V8.00004C10.4999 7.30939 10.2208 6.68535 9.76751 6.2321C9.31429 5.77897 8.69039 5.50004 7.99991 5.50004C7.30942 5.50004 6.68551 5.77898 6.23229 6.23213C5.77897 6.68537 5.49991 7.3094 5.49991 8.00004V8.25004C5.49991 8.44895 5.4209 8.63972 5.28024 8.78037C5.13959 8.92102 4.94882 9.00004 4.7499 9.00004L1.74999 9C1.33578 8.99999 0.999995 8.6642 1 8.24999C1.00001 7.83578 1.3358 7.49999 1.75001 7.5L4.03091 7.50003C4.11114 6.85756 4.34387 6.26212 4.69126 5.75168L3.05052 4.11093C2.75762 3.81804 2.75762 3.34317 3.05052 3.05027C3.34341 2.75738 3.81828 2.75738 4.11118 3.05027L5.75199 4.69109C6.19547 4.38935 6.70308 4.17417 7.24993 4.07033L7.25 1.74998C7.25001 1.33576 7.58581 0.999988 8.00002 1ZM1 11.25C1 10.8358 1.33579 10.5 1.75 10.5H14.25C14.6642 10.5 15 10.8358 15 11.25C15 11.6642 14.6642 12 14.25 12H1.75C1.33579 12 1 11.6642 1 11.25ZM3 14.25C3 13.8358 3.33579 13.5 3.75 13.5H12.25C12.6642 13.5 13 13.8358 13 14.25C13 14.6642 12.6642 15 12.25 15H3.75C3.33579 15 3 14.6642 3 14.25Z" fill="#000"/>
</svg>

<svg xmlns="http://www.w3.org/2000/svg" width="32" height="32" fill="none" viewBox="0 0 16 16"><path fill="#fff" d="M0 0h16v16H0z"/><path fill="#000" fill-rule="evenodd" d="M8 1a.75.75 0 0 1 .75.75v2.32a4 4 0 0 1 1.498.621l1.64-1.64a.75.75 0 0 1 1.061 1.06l-1.64 1.64a4 4 0 0 1 .66 1.749h2.281a.75.75 0 0 1 0 1.5h-3a.75.75 0 0 1-.75-.75V8c0-.69-.28-1.315-.732-1.768A2.5 2.5 0 0 0 8 5.5a2.5 2.5 0 0 0-1.768.732A2.5 2.5 0 0 0 5.5 8v.25a.75.75 0 0 1-.75.75h-3a.75.75 0 0 1 0-1.5h2.28a4 4 0 0 1 .661-1.748L3.051 4.11a.75.75 0 1 1 1.06-1.06l1.641 1.64a4 4 0 0 1 1.498-.62V1.75A.75.75 0 0 1 8 1M1 11.25a.75.75 0 0 1 .75-.75h12.5a.75.75 0 0 1 0 1.5H1.75a.75.75 0 0 1-.75-.75m2 3a.75.75 0 0 1 .75-.75h8.5a.75.75 0 0 1 0 1.5h-8.5a.75.75 0 0 1-.75-.75" clip-rule="evenodd"/></svg>
